X: 45
T:Dinkey's
T:Dinkie Dorian's
T:Dinkies
F:http://blackrosetheband.googlepages.com/ABCTUNES.ABC May 2009
M:4/4
L:1/8
R:reel
K:Amix
|:ed|"A"c2B2 ABcd|egfg edBd|"G"gBBB gBaB|gBBB gfed|
"A"cdBc ABcd|egfg edBd|"G"gfgd "D"efed|"E"c2B2 "A"A2:|
||eg|"A"aAAA aAbA|aAAA agef|"G"gBBB gBaB|gBBB gfeg|
"A"aAAA aAbA|aAAA agef|"G"gfgd "D"efed|"E"cdBc "A"A2|
|eg|"A"aAAA aAbA|aAAA agef|"G"gBBB gBaB|gBBB gfeg|
"A"aAAA "G"gAAA|"D"fAAA "A"e2ef|"G"gfgd "D"efed|"E"cdBc "A"A2||

